X:1
T:Sugar in the Gourd [5]
L:1/8
Q:1/4=120
M:2/2
I:linebreak $
K:A
V:1 treble 
V:1
"^Quick" !slide![ee]3 [ee-] [ee]fed | cABG A(EA)d | cABc dfed | cABG A2 Ad | cABG A2 Ad |$ %5
 cABG A2 Ad | cABc dfed | cABG [EA]2 d2 | cABG A2 Ad | cABG A2 Ad | cABc dfed |$ cABG [EA]2 Ad | %12
 cABG A2 [Ae]2 |: [A,E]4 =g4 | f=gag edce | d2 [df][df] efed | cABG A2 AA |$ [A,E]3 e =gege | %18
 f=gag edce |"^*" def^g afed | cABG A2 A2 :|"^Substitutions" x8 |$ %22
[M:6/4]"^*" def^g a2 (b/a/g) a2 ed | %23
